;FLAVOR:UltiGCode
;TIME:3004
;MATERIAL:5467
;MATERIAL2:0
;NOZZLE_DIAMETER:0.4
;MINX:84.789
;MINY:78.473
;MINZ:0.27
;MAXX:138.201
;MAXY:131.88
;MAXZ:11.87
;Generated with Cura_SteamEngine 4.6.1
M82 ;absolute extrusion mode

G92 E0
G92 E0
G10
;LAYER_COUNT:59
;LAYER:0
M107
G0 F4320 X91.832 Y87.103 Z0.27
;TYPE:SKIRT
G11
G1 F1800 X92.646 Y86.255 E0.11108
G1 X93.842 Y85.135 E0.26592
G1 X95.076 Y84.113 E0.41734
G1 X96.431 Y83.123 E0.57592
G1 X96.848 Y82.844 E0.62333
G1 X97.82 Y82.236 E0.73168
G1 X99.256 Y81.438 E0.88692
G1 X100.766 Y80.719 E1.04497
G1 X102.262 Y80.115 E1.19743
G1 X103.862 Y79.582 E1.3568
G1 X105.384 Y79.177 E1.50563
G1 X107.021 Y78.846 E1.66346
G1 X108.63 Y78.624 E1.81695
G1 X110.273 Y78.497 E1.97268
G1 X111.932 Y78.473 E2.12947
G1 X113.557 Y78.549 E2.2832
G1 X115.185 Y78.726 E2.43795
G1 X116.827 Y79.007 E2.59538
G1 X118.497 Y79.402 E2.75755
G1 X118.989 Y79.541 E2.80586
G1 X120.029 Y79.87 E2.90894
G1 X121.553 Y80.436 E3.06257
G1 X123.024 Y81.087 E3.21458
G1 X124.47 Y81.835 E3.36843
G1 X125.936 Y82.71 E3.52977
G1 X126.375 Y82.998 E3.57938
G1 X127.293 Y83.644 E3.68546
G1 X128.564 Y84.635 E3.83777
G1 X128.947 Y84.96 E3.88523
G1 X129.853 Y85.778 E4.00059
G1 X130.967 Y86.897 E4.1498
G1 X132.074 Y88.151 E4.30787
G1 X132.4 Y88.553 E4.35678
G1 X133.068 Y89.433 E4.46119
G1 X133.997 Y90.791 E4.61667
G1 X134.264 Y91.217 E4.66418
G1 X134.874 Y92.262 E4.77853
G1 X135.118 Y92.713 E4.82699
G1 X135.612 Y93.702 E4.93146
G1 X136.255 Y95.168 E5.08273
G1 X136.822 Y96.705 E5.23755
G1 X137.31 Y98.33 E5.39789
G1 X137.683 Y99.93 E5.55314
G1 X137.945 Y101.491 E5.70272
G1 X138.128 Y103.183 E5.86354
G1 X138.164 Y103.712 E5.91365
G1 X138.201 Y104.83 E6.01936
G1 X138.171 Y106.464 E6.1738
G1 X138.044 Y108.068 E6.32585
G1 X137.806 Y109.764 E6.48769
G1 X137.712 Y110.276 E6.53689
G1 X137.48 Y111.341 E6.63989
G1 X137.065 Y112.883 E6.79079
G1 X136.519 Y114.508 E6.95279
G1 X136.338 Y114.978 E7.00039
G1 X135.896 Y116.03 E7.10822
G1 X135.194 Y117.49 E7.26131
G1 X134.367 Y118.967 E7.42127
G1 X133.497 Y120.316 E7.57297
G1 X132.54 Y121.618 E7.72567
G1 X131.496 Y122.874 E7.88001
G1 X130.359 Y124.082 E8.03678
G1 X129.134 Y125.231 E8.19549
G1 X127.854 Y126.287 E8.3523
G1 X126.548 Y127.237 E8.50492
G1 X125.19 Y128.104 E8.65717
G1 X123.754 Y128.902 E8.81242
G1 X122.249 Y129.622 E8.97008
G1 X120.71 Y130.244 E9.12695
G1 X119.141 Y130.766 E9.28321
G1 X117.549 Y131.189 E9.43887
G1 X115.979 Y131.504 E9.59019
G1 X114.299 Y131.736 E9.75046
G1 X113.797 Y131.784 E9.79811
G1 X112.641 Y131.859 E9.90759
G1 X111.04 Y131.88 E10.05889
G1 X109.414 Y131.801 E10.21273
G1 X107.799 Y131.625 E10.36625
G1 X106.175 Y131.347 E10.52195
G1 X104.554 Y130.964 E10.67936
G1 X102.974 Y130.487 E10.83532
G1 X101.446 Y129.919 E10.98937
G1 X99.981 Y129.272 E11.14071
G1 X98.448 Y128.48 E11.30377
G1 X98 Y128.224 E11.35253
G1 X97.034 Y127.631 E11.45965
G1 X95.694 Y126.708 E11.61341
G1 X94.41 Y125.704 E11.76744
G1 X93.176 Y124.611 E11.92322
G1 X92.024 Y123.457 E12.07731
G1 X90.906 Y122.19 E12.23699
G1 X90.588 Y121.798 E12.28469
G1 X89.881 Y120.867 E12.39516
G1 X88.987 Y119.551 E12.54551
G1 X88.166 Y118.177 E12.69676
G1 X87.403 Y116.7 E12.85386
G1 X86.741 Y115.2 E13.00881
G1 X86.172 Y113.659 E13.16404
G1 X85.688 Y112.046 E13.32318
G1 X85.318 Y110.473 E13.47589
G1 X85.045 Y108.87 E13.62955
G1 X84.861 Y107.163 E13.7918
G1 X84.827 Y106.652 E13.8402
G1 X84.789 Y105.525 E13.94676
G1 X84.818 Y103.919 E14.09855
G1 X84.946 Y102.288 E14.25315
G1 X85.18 Y100.62 E14.41232
G1 X85.272 Y100.113 E14.46102
G1 X85.513 Y98.998 E14.56882
G1 X85.932 Y97.441 E14.72119
G1 X86.082 Y96.96 E14.7688
G1 X86.475 Y95.832 E14.88168
G1 X87.087 Y94.337 E15.03434
G1 X87.805 Y92.842 E15.19106
G1 X88.049 Y92.383 E15.24019
G1 X88.631 Y91.371 E15.35051
G1 X89.492 Y90.038 E15.50047
G1 X90.451 Y88.734 E15.65343
G1 X91.494 Y87.478 E15.80771
G1 X91.832 Y87.103 E15.85542
G0 F4320 X91.762 Y87.704
G1 F1800 X92.898 Y86.497 E16.01206
G1 X94.079 Y85.393 E16.16483
G1 X95.297 Y84.385 E16.31424
G1 X96.635 Y83.408 E16.4708
G1 X98.005 Y82.532 E16.62447
G1 X99.423 Y81.746 E16.77768
G1 X100.914 Y81.036 E16.93374
G1 X102.39 Y80.441 E17.08412
G1 X103.969 Y79.915 E17.2414
G1 X105.471 Y79.516 E17.38826
G1 X107.088 Y79.19 E17.54414
G1 X108.675 Y78.971 E17.69554
G1 X110.297 Y78.847 E17.84926
G1 X111.934 Y78.823 E18.00398
G1 X113.537 Y78.899 E18.15563
G1 X115.144 Y79.073 E18.30838
G1 X116.765 Y79.352 E18.46382
G1 X118.413 Y79.742 E18.62385
G1 X119.924 Y80.203 E18.77314
G1 X121.428 Y80.763 E18.9248
G1 X122.879 Y81.406 E19.07478
G1 X124.307 Y82.145 E19.22673
G1 X125.754 Y83.009 E19.38599
G1 X126.174 Y83.284 E19.43343
G1 X127.092 Y83.93 E19.53951
G1 X128.346 Y84.909 E19.68985
G1 X129.619 Y86.038 E19.85064
G1 X130.717 Y87.142 E19.99778
G1 X131.809 Y88.381 E20.15385
G1 X132.789 Y89.644 E20.30492
G1 X133.707 Y90.987 E20.45865
G1 X134.572 Y92.438 E20.61829
G1 X135.299 Y93.858 E20.76904
G1 X135.934 Y95.306 E20.91846
G1 X136.493 Y96.823 E21.07124
G1 X136.973 Y98.428 E21.22955
G1 X137.341 Y100.007 E21.38276
G1 X137.6 Y101.546 E21.53024
G1 X137.78 Y103.218 E21.68916
G1 X137.814 Y103.723 E21.73699
G1 X137.851 Y104.841 E21.8427
G1 X137.821 Y106.454 E21.99515
G1 X137.696 Y108.037 E22.14521
G1 X137.459 Y109.712 E22.30508
G1 X137.138 Y111.267 E22.45512
G1 X136.728 Y112.79 E22.60417
G1 X136.188 Y114.393 E22.76402
G1 X135.574 Y115.895 E22.91736
G1 X134.88 Y117.336 E23.0685
G1 X134.063 Y118.793 E23.22636
G1 X133.205 Y120.123 E23.37593
G1 X132.26 Y121.408 E23.52666
G1 X131.228 Y122.648 E23.67912
G1 X130.107 Y123.84 E23.83375
G1 X128.897 Y124.973 E23.99039
G1 X127.634 Y126.015 E24.14512
G1 X126.345 Y126.952 E24.29572
G1 X125.004 Y127.807 E24.44601
G1 X123.587 Y128.595 E24.59923
G1 X122.101 Y129.305 E24.75486
G1 X120.582 Y129.918 E24.90965
G1 X119.033 Y130.433 E25.06391
G1 X117.462 Y130.85 E25.21751
G1 X115.914 Y131.16 E25.3667
G1 X114.254 Y131.389 E25.52506
G1 X112.618 Y131.51 E25.68008
G1 X111.039 Y131.53 E25.82931
G1 X109.434 Y131.452 E25.98116
G1 X107.839 Y131.278 E26.13278
G1 X106.238 Y131.003 E26.28629
G1 X104.638 Y130.624 E26.44168
G1 X103.078 Y130.153 E26.59567
G1 X101.571 Y129.593 E26.7476
G1 X100.126 Y128.953 E26.89694
G1 X98.612 Y128.17 E27.05802
G1 X97.217 Y127.333 E27.21175
G1 X95.895 Y126.422 E27.36347
G1 X94.628 Y125.43 E27.51554
G1 X93.411 Y124.351 E27.66924
G1 X92.274 Y123.212 E27.82132
G1 X91.171 Y121.96 E27.979
G1 X90.16 Y120.655 E28.135
G1 X89.278 Y119.357 E28.2833
G1 X88.468 Y118 E28.43265
G1 X87.715 Y116.542 E28.58772
G1 X87.062 Y115.062 E28.74059
G1 X86.501 Y113.541 E28.89379
G1 X86.024 Y111.949 E29.05084
G1 X85.66 Y110.396 E29.20157
G1 X85.391 Y108.814 E29.35322
G1 X85.21 Y107.129 E29.51337
G1 X85.139 Y105.514 E29.66613
G1 X85.168 Y103.929 E29.81594
G1 X85.295 Y102.318 E29.96865
G1 X85.526 Y100.671 E30.12582
G1 X85.855 Y99.072 E30.28009
G1 X86.269 Y97.535 E30.43051
G1 X86.806 Y95.947 E30.58892
G1 X87.41 Y94.472 E30.73955
G1 X88.119 Y92.996 E30.89429
G1 X88.935 Y91.546 E31.05152
G1 X89.784 Y90.231 E31.19943
G1 X90.731 Y88.944 E31.35043
G1 X91.762 Y87.704 E31.50283
G0 F4320 X92.029 Y87.929
G1 F1800 X93.151 Y86.739 E31.65738
G1 X94.315 Y85.651 E31.80795
G1 X95.518 Y84.656 E31.95548
G1 X96.839 Y83.692 E32.11002
G1 X98.191 Y82.829 E32.2616
G1 X99.59 Y82.053 E32.41278
G1 X101.061 Y81.354 E32.56668
G1 X102.518 Y80.767 E32.71512
G1 X104.077 Y80.249 E32.87037
G1 X105.558 Y79.855 E33.01519
G1 X107.154 Y79.533 E33.16905
G1 X108.719 Y79.318 E33.31833
G1 X110.321 Y79.196 E33.47016
G1 X111.936 Y79.173 E33.62279
G1 X113.518 Y79.248 E33.77246
G1 X115.103 Y79.421 E33.92313
G1 X116.703 Y79.696 E34.07655
G1 X118.329 Y80.082 E34.23448
G1 X119.818 Y80.537 E34.38161
G1 X121.304 Y81.091 E34.53148
G1 X122.735 Y81.725 E34.67939
G1 X124.143 Y82.454 E34.82922
G1 X125.572 Y83.308 E34.98654
G1 X126.89 Y84.216 E35.13778
G1 X128.129 Y85.184 E35.28637
G1 X129.384 Y86.297 E35.44489
G1 X130.466 Y87.386 E35.58996
G1 X131.545 Y88.61 E35.74415
G1 X132.51 Y89.856 E35.89308
G1 X133.416 Y91.182 E36.04484
G1 X134.27 Y92.615 E36.20249
G1 X134.986 Y94.015 E36.35109
G1 X135.612 Y95.444 E36.49851
G1 X136.163 Y96.941 E36.64926
G1 X136.637 Y98.525 E36.80551
G1 X137 Y100.083 E36.95668
G1 X137.254 Y101.6 E37.10203
G1 X137.432 Y103.253 E37.25914
G1 X137.501 Y104.853 E37.41048
G1 X137.471 Y106.445 E37.56096
G1 X137.347 Y108.006 E37.70893
G1 X137.113 Y109.66 E37.86679
G1 X136.796 Y111.192 E38.01463
G1 X136.39 Y112.696 E38.16185
G1 X135.857 Y114.278 E38.31961
G1 X135.251 Y115.759 E38.47082
G1 X134.566 Y117.181 E38.61998
G1 X133.759 Y118.619 E38.77581
G1 X132.913 Y119.931 E38.92333
G1 X131.98 Y121.198 E39.07203
G1 X130.961 Y122.422 E39.22253
G1 X129.854 Y123.598 E39.37515
G1 X128.66 Y124.715 E39.52966
G1 X127.413 Y125.743 E39.68239
G1 X126.142 Y126.667 E39.83088
G1 X124.818 Y127.511 E39.97926
G1 X123.419 Y128.287 E40.13044
G1 X121.953 Y128.988 E40.284
G1 X120.453 Y129.592 E40.43681
G1 X118.926 Y130.1 E40.58889
G1 X117.375 Y130.511 E40.74052
G1 X115.848 Y130.816 E40.88767
G1 X114.209 Y131.041 E41.04401
G1 X112.596 Y131.161 E41.19686
G1 X111.038 Y131.18 E41.3441
G1 X109.454 Y131.102 E41.49397
G1 X107.88 Y130.93 E41.6436
G1 X106.3 Y130.658 E41.7951
G1 X104.721 Y130.285 E41.94843
G1 X103.182 Y129.819 E42.10038
G1 X101.696 Y129.266 E42.25022
G1 X100.27 Y128.634 E42.39762
G1 X98.775 Y127.86 E42.5567
G1 X97.4 Y127.035 E42.70824
G1 X96.096 Y126.135 E42.85796
G1 X94.846 Y125.157 E43.00795
G1 X93.645 Y124.092 E43.15964
G1 X92.524 Y122.967 E43.30972
G1 X91.436 Y121.731 E43.46533
G1 X90.439 Y120.443 E43.61925
G1 X89.569 Y119.163 E43.7655
G1 X88.77 Y117.823 E43.91294
G1 X88.028 Y116.384 E44.06594
G1 X87.384 Y114.923 E44.21682
G1 X86.831 Y113.423 E44.36789
G1 X86.36 Y111.851 E44.52297
G1 X86.001 Y110.319 E44.67167
G1 X85.736 Y108.759 E44.8212
G1 X85.558 Y107.094 E44.97944
G1 X85.489 Y105.502 E45.13002
G1 X85.518 Y103.938 E45.27785
G1 X85.643 Y102.349 E45.42847
G1 X85.872 Y100.723 E45.58365
G1 X86.197 Y99.146 E45.7358
G1 X86.606 Y97.628 E45.88437
G1 X87.136 Y96.062 E46.0406
G1 X87.732 Y94.608 E46.1891
G1 X88.434 Y93.15 E46.34202
G1 X89.238 Y91.72 E46.49705
G1 X90.076 Y90.423 E46.64298
G1 X91.011 Y89.154 E46.79193
G1 X92.029 Y87.929 E46.94245
G0 F4320 X92.297 Y88.155
G1 F1800 X93.403 Y86.982 E47.0948
G1 X94.552 Y85.909 E47.24337
G1 X95.739 Y84.928 E47.38889
G1 X97.043 Y83.976 E47.54146
G1 X98.377 Y83.126 E47.69094
G1 X99.757 Y82.361 E47.84005
G1 X101.209 Y81.671 E47.99197
G1 X102.647 Y81.092 E48.13846
G1 X104.185 Y80.582 E48.29158
G1 X105.645 Y80.194 E48.43434
G1 X107.22 Y79.877 E48.58616
G1 X108.764 Y79.665 E48.73344
G1 X110.345 Y79.545 E48.88327
G1 X111.938 Y79.523 E49.03383
G1 X113.498 Y79.598 E49.18142
G1 X115.062 Y79.769 E49.3301
G1 X116.641 Y80.041 E49.48151
G1 X118.246 Y80.422 E49.6374
G1 X119.713 Y80.871 E49.78238
G1 X121.179 Y81.418 E49.93024
G1 X122.59 Y82.043 E50.07608
G1 X123.98 Y82.764 E50.22405
G1 X125.39 Y83.607 E50.3793
G1 X126.689 Y84.502 E50.52837
G1 X127.911 Y85.458 E50.67499
G1 X129.15 Y86.557 E50.83149
G1 X130.216 Y87.63 E50.97443
G1 X131.281 Y88.84 E51.12675
G1 X132.231 Y90.067 E51.2734
G1 X133.126 Y91.378 E51.4234
G1 X133.967 Y92.791 E51.57879
G1 X134.673 Y94.171 E51.72528
G1 X135.291 Y95.582 E51.87085
G1 X135.834 Y97.059 E52.01956
G1 X136.301 Y98.623 E52.1738
G1 X136.658 Y100.159 E52.32283
G1 X136.908 Y101.655 E52.46616
G1 X137.084 Y103.288 E52.62137
G1 X137.151 Y104.864 E52.77044
G1 X137.122 Y106.436 E52.91902
G1 X136.999 Y107.975 E53.06491
G1 X136.767 Y109.608 E53.22078
G1 X136.454 Y111.118 E53.36651
G1 X136.053 Y112.603 E53.51187
G1 X135.526 Y114.164 E53.66756
G1 X134.928 Y115.624 E53.81666
G1 X134.251 Y117.027 E53.96387
G1 X133.455 Y118.446 E54.11762
G1 X132.62 Y119.738 E54.263
G1 X131.7 Y120.988 E54.40967
G1 X130.694 Y122.196 E54.55822
G1 X129.601 Y123.356 E54.70884
G1 X128.423 Y124.458 E54.86128
G1 X127.193 Y125.472 E55.01192
G1 X125.938 Y126.382 E55.15841
G1 X124.633 Y127.214 E55.30467
G1 X123.252 Y127.98 E55.4539
G1 X121.804 Y128.671 E55.60552
G1 X120.325 Y129.267 E55.75621
G1 X118.819 Y129.767 E55.90616
G1 X117.288 Y130.172 E56.05582
G1 X115.783 Y130.473 E56.20086
G1 X114.164 Y130.694 E56.35527
G1 X112.573 Y130.812 E56.50604
G1 X111.036 Y130.83 E56.65129
G1 X109.474 Y130.753 E56.79908
G1 X107.921 Y130.583 E56.94671
G1 X106.362 Y130.314 E57.09622
G1 X104.805 Y129.945 E57.24743
G1 X103.286 Y129.485 E57.39741
G1 X101.821 Y128.939 E57.54516
G1 X100.414 Y128.315 E57.69061
G1 X98.938 Y127.551 E57.84767
G1 X97.583 Y126.736 E57.99709
G1 X96.298 Y125.849 E58.14465
G1 X95.064 Y124.883 E58.29274
G1 X93.879 Y123.832 E58.44242
G1 X92.774 Y122.722 E58.59043
G1 X91.7 Y121.502 E58.74403
G1 X90.718 Y120.232 E58.89574
G1 X89.86 Y118.969 E59.04003
G1 X89.072 Y117.646 E59.18555
G1 X88.34 Y116.227 E59.33643
G1 X87.705 Y114.785 E59.48533
G1 X87.161 Y113.305 E59.63434
G1 X86.696 Y111.753 E59.78744
G1 X86.343 Y110.242 E59.93408
G1 X86.082 Y108.703 E60.08159
G1 X85.906 Y107.06 E60.23774
G1 X85.839 Y105.49 E60.38624
G1 X85.867 Y103.947 E60.53208
G1 X85.992 Y102.379 E60.68073
G1 X86.218 Y100.774 E60.8339
G1 X86.539 Y99.22 E60.98385
G1 X86.944 Y97.722 E61.13049
G1 X87.467 Y96.178 E61.28454
G1 X88.055 Y94.744 E61.43101
G1 X88.748 Y93.305 E61.58194
G1 X89.542 Y91.894 E61.73494
G1 X90.369 Y90.616 E61.87879
G1 X91.291 Y89.364 E62.02573
G1 X92.297 Y88.155 E62.17436
G0 F4320 X92.564 Y88.381
G1 F1800 X93.656 Y87.224 E62.3247
G1 X94.789 Y86.167 E62.47113
G1 X95.96 Y85.199 E62.6147
G1 X97.247 Y84.261 E62.7652
G1 X98.562 Y83.422 E62.9126
G1 X99.925 Y82.668 E63.0598
G1 X101.356 Y81.989 E63.20948
G1 X102.775 Y81.418 E63.35403
G1 X104.292 Y80.915 E63.50506
G1 X105.732 Y80.533 E63.64585
G1 X107.287 Y80.221 E63.79572
G1 X108.808 Y80.013 E63.94079
G1 X110.369 Y79.894 E64.08874
G1 X111.94 Y79.873 E64.23721
G1 X113.479 Y79.947 E64.38281
G1 X115.021 Y80.116 E64.5294
G1 X116.579 Y80.385 E64.67881
G1 X118.162 Y80.762 E64.83259
G1 X119.607 Y81.205 E64.97542
G1 X121.054 Y81.745 E65.12137
G1 X122.446 Y82.362 E65.26526
G1 X123.816 Y83.073 E65.41112
G1 X125.208 Y83.906 E65.56442
G1 X126.487 Y84.789 E65.71129
G1 X127.694 Y85.732 E65.85603
G1 X128.915 Y86.817 E66.01039
G1 X129.965 Y87.875 E66.15125
G1 X131.016 Y89.069 E66.30157
G1 X131.952 Y90.279 E66.44614
G1 X132.835 Y91.573 E66.59418
G1 X133.665 Y92.968 E66.74757
G1 X134.36 Y94.328 E66.8919
G1 X134.969 Y95.72 E67.03548
G1 X135.504 Y97.177 E67.18216
G1 X135.965 Y98.72 E67.33434
G1 X136.316 Y100.235 E67.4813
G1 X136.563 Y101.71 E67.62263
G1 X136.735 Y103.323 E67.77592
G1 X136.801 Y104.876 E67.92281
G1 X136.772 Y106.426 E68.06931
G1 X136.65 Y107.945 E68.21332
G1 X136.421 Y109.557 E68.36719
G1 X136.112 Y111.043 E68.51062
G1 X135.716 Y112.509 E68.65412
G1 X135.196 Y114.049 E68.80772
G1 X134.606 Y115.488 E68.95469
G1 X133.937 Y116.872 E69.09996
G1 X133.152 Y118.272 E69.25164
G1 X132.328 Y119.546 E69.39502
G1 X131.42 Y120.778 E69.53965
G1 X130.427 Y121.97 E69.68625
G1 X129.349 Y123.113 E69.83473
G1 X128.186 Y124.2 E69.98516
G1 X126.973 Y125.2 E70.13372
G1 X125.735 Y126.097 E70.2782
G1 X124.447 Y126.918 E70.42254
G1 X123.085 Y127.673 E70.5697
G1 X121.656 Y128.354 E70.71929
G1 X120.197 Y128.941 E70.8679
G1 X118.711 Y129.434 E71.01586
G1 X117.201 Y129.833 E71.16345
G1 X115.717 Y130.129 E71.30645
G1 X114.119 Y130.347 E71.45886
G1 X112.55 Y130.462 E71.60753
G1 X111.035 Y130.48 E71.75071
G1 X109.494 Y130.403 E71.89651
G1 X107.962 Y130.235 E72.04215
G1 X106.425 Y129.97 E72.18954
G1 X104.888 Y129.605 E72.33883
G1 X103.39 Y129.15 E72.48678
G1 X101.946 Y128.612 E72.6324
G1 X100.559 Y127.996 E72.77581
G1 X99.101 Y127.241 E72.93097
G1 X97.767 Y126.438 E73.07811
G1 X96.499 Y125.563 E73.2237
G1 X95.282 Y124.609 E73.36983
G1 X94.114 Y123.572 E73.51743
G1 X93.024 Y122.477 E73.66344
G1 X91.965 Y121.273 E73.81496
G1 X90.996 Y120.02 E73.96465
G1 X90.151 Y118.775 E74.10684
G1 X89.374 Y117.469 E74.25045
G1 X88.653 Y116.069 E74.39926
G1 X88.026 Y114.646 E74.54621
G1 X87.49 Y113.187 E74.6931
G1 X87.032 Y111.655 E74.8442
G1 X86.684 Y110.166 E74.9887
G1 X86.427 Y108.648 E75.1342
G1 X86.255 Y107.025 E75.28843
G1 X86.189 Y105.478 E75.43475
G1 X86.217 Y103.956 E75.57861
G1 X86.341 Y102.41 E75.72517
G1 X86.564 Y100.825 E75.87643
G1 X86.881 Y99.294 E76.02418
G1 X87.281 Y97.816 E76.16887
